!!!COM: Corelli, Arcangelo
!!!OTL: 
!!!ONM: Opus 5, No. 3
!!!OMV: 3
!!!CDT: 1653/2/17/-1713/1/8/
!!!OCY: Italia
**kern	**kern
*clefC	*clefG
*k[]	*k[]
*a:	*a:
*M3/4	*M3/4
=1	=1
2.r	4ee
.	4a
.	4ff
=2	=2
4E	4g#
4AA	2a
4F	.
=3	=3
4GG#	4b
2AA	4.cc
.	8dd
=4	=4
2EE	4b
.	4e
4C	[4ee
=5	=5
2F	4ee]
.	4a
4D	[4dd
=6	=6
4GG#	4dd]
4AA	4cc
4D	4b
=7	=7
4E	4cc
2EE	2b
=8	=8
4AA	2a
[2A	.
.	4a
=9	=9
4A]	4.b
2G#	.
.	8cc
.	8dd
.	8ee
=10	=10
2A	4cc
.	4a
4G	4ee
=11	=11
2F	4.aa
.	8ccc
4D	8bb
.	8aa
=12	=12
2E	2gg#
4r	4r
=13	=13
2.r	4bb
.	4ee
.	4ccc
=14	=14
4B	4dd#
4E	2ee
4c	.
=15	=15
4D#	4.ff#
2E	.
.	8gg
.	4aa
=16	=16
2BB	4ff#
.	4b
4G	[4bb
=17	=17
2c	4bb]
.	4ee
4A	[4aa
=18	=18
4D#	4aa]
4E	4gg
4AA	4ff#
=19	=19
4BB	4gg
2BB	2ff#
=20	=20
4E	4ee
4EE	4gg
4r	4cc
=21	=21
4F	[2.cc
4E	.
4C	.
=22	=22
4F	4cc]
4FF	4aa
4r	4dd
=23	=23
4G	[2.dd
4F#	.
4D	.
=24	=24
4G	4dd]
4GG	4dd
4r	4ee
=25	=25
4r	[2.ff
4A	.
4B	.
=26	=26
4c	4ff]
4E	4gg
4F	4aa
=27	=27
4G	4ee
2GG	2dd
=28	=28
4C	2.cc
4c	.
4B-	.
=29	=29
4A	2.cc#
4A	.
4G	.
=30	=30
4F	2.dd
4d	.
4c	.
=31	=31
4B	2.dd#
4B	.
4A	.
=32	=32
4.G	4.ee
8D#	8ff#
4E	8gg
.	8ff#
=33	=33
4AA	8aa
.	8gg
2BB	2ff#
=34	=34
4E	2.ee
4AA	.
[4A	.
=35	=35
4A]	4b
2G	4e
.	4ee
=36	=36
2F	4aa
.	4dd
4G	4bb-
=37	=37
4C#	4.aa
4AA	.
.	8gg
4D	8ff
.	8ee
=38	=38
4GG	8ff
.	8gg
2AA	2ee
=39	=39
4D	4dd
8d	[2ff
8c	.
8B	.
8A	.
=40	=40
2G#	4ff]
.	8ee
.	8dd
4E	8cc
.	8b
=41	=41
4A	4cc
2C#	8aa
.	8ee
.	8ff
.	8gg
=42	=42
4D	4ff
2D#	8bb
.	8ff#
.	8gg#
.	8aa
=43	=43
2E	4.gg#
.	8ee
4C	4aa
=44	=44
4D	8dd
.	8cc
2E	2b
=45	=45
4AA	[2.a
4A	.
4G	.
=46	=46
4F	2.a]
4F	.
4E	.
=47	=47
2D	2b-
4D	4dd
=48	=48
2D	4.gg#
.	8ee
4C	4aa
=49	=49
4D	8dd
.	8cc
4E	2b
4EE	.
=50	=50
2AA	2a
[4GG	[4ee
=51	=51
4GG]	4ee]
2FF	2dd
=52	=52
2.EE	2.ee
==	==
*-	*-
!!!RWG: This file only contains pitch and duration data.
!!!RWG: Transposing instruments are not transposed.
!!!RWG: Durations of rests and tied notes may be interpreted.
!!!RWG: Key is interpreted using the Humdrum key tool.
!!!SCA: 
!!!YOR: 
!!!AGN: violin
!!!AFT: stage1
!!!ENC: F. Bennion
!!!END: 1997/04/15
!!!AST: baroque
!!!YEC: Copyright 1994, Center for Computer Assisted Research in the Humanities
!!!YEM: Rights to all derivative electronic formats reserved.
!!!YEM: Refer to licensing agreement for further details.
!!!YEN: United States of America
!!!EED: W.B. Hewlett
!!!KEY: 558981862
!!!EMD: Converted from MuseData to Humdrum Aug 9, 1999, by Bret Aarden using muse2kern.
!!!VTS: 4033819696
